packages/dnb-eufemia/assets/icons/restaurant.svg

<svg width="16" height="16" viewBox="0 0 16 16" fill="none" xmlns="http://www.w3.org/2000/svg">
<path d="M1.18328 14.5C1.18328 14.9142 1.51906 15.25 1.93328 15.25C2.34749 15.25 2.68328 14.9142 2.68328 14.5H1.18328ZM15 9.40526C15.4142 9.40526 15.75 9.06948 15.75 8.65526C15.75 8.24105 15.4142 7.90526 15 7.90526L15 9.40526ZM13.4666 8.65526L13.4666 7.90526H13.4666L13.4666 8.65526ZM13.1371 8.51903L12.6075 9.05007H12.6075L13.1371 8.51903ZM13 8.18987H12.25L12.25 8.19187L13 8.18987ZM13.97 1.7882L14.6629 2.07524L14.663 2.075L13.97 1.7882ZM14.9994 1.96677L14.2494 1.96656V1.96677H14.9994ZM14.2494 14.5C14.2494 14.9142 14.5852 15.25 14.9994 15.25C15.4136 15.25 15.7494 14.9142 15.7494 14.5H14.2494ZM1.75 1.50013C1.75 1.08591 1.41421 0.750129 1 0.750129C0.585786 0.750129 0.25 1.08591 0.25 1.50013H1.75ZM1 5.23324H0.25H1ZM3.75 1.50013C3.75 1.08591 3.41421 0.750129 3 0.750129C2.58579 0.750129 2.25 1.08591 2.25 1.50013H3.75ZM1.18328 6.16652V14.5H2.68328V6.16652H1.18328ZM15 7.90526L13.4666 7.90526L13.4666 9.40526L15 9.40526L15 7.90526ZM13.4666 7.90526C13.5417 7.90526 13.6136 7.93502 13.6667 7.98799L12.6075 9.05007C12.8356 9.27753 13.1445 9.40527 13.4666 9.40526L13.4666 7.90526ZM13.6667 7.98799C13.7199 8.04097 13.7498 8.11285 13.75 8.18787L12.25 8.19187C12.2509 8.51398 12.3794 8.8226 12.6075 9.05007L13.6667 7.98799ZM13.75 8.18987C13.75 6.46755 13.7398 4.30368 14.6629 2.07524L13.2771 1.50117C12.2254 4.03991 12.25 6.48768 12.25 8.18987H13.75ZM14.663 2.075C14.6379 2.13559 14.5926 2.1856 14.5348 2.21652L13.8275 0.893757C13.5792 1.02651 13.3846 1.24127 13.277 1.50141L14.663 2.075ZM14.5348 2.21652C14.5158 2.22669 14.4996 2.23394 14.4877 2.23886C14.4757 2.24384 14.466 2.24731 14.4591 2.24958C14.446 2.25394 14.4384 2.2556 14.438 2.25568C14.4372 2.25586 14.4396 2.25531 14.4454 2.25444C14.451 2.25361 14.4582 2.25272 14.4667 2.25195C14.4845 2.25032 14.5007 2.24986 14.5111 2.25003C14.516 2.25011 14.5167 2.25029 14.5133 2.25C14.511 2.2498 14.4981 2.24865 14.4775 2.24456L14.7701 0.773373C14.6151 0.742543 14.4463 0.747563 14.3302 0.758168C14.2319 0.767148 14.0172 0.792301 13.8275 0.893757L14.5348 2.21652ZM14.4775 2.24456C14.4132 2.23177 14.3553 2.19707 14.3137 2.14637L15.4733 1.19493C15.2947 0.977276 15.0462 0.828292 14.7701 0.773373L14.4775 2.24456ZM14.3137 2.14637C14.2721 2.09568 14.2494 2.03214 14.2494 1.96656L15.7494 1.96697C15.7495 1.68543 15.6519 1.41258 15.4733 1.19493L14.3137 2.14637ZM14.2494 1.96677V14.5H15.7494V1.96677H14.2494ZM0.25 1.50013V5.23324H1.75V1.50013H0.25ZM0.25 5.23324C0.25 5.67968 0.427345 6.10782 0.743021 6.4235L1.80368 5.36284C1.76931 5.32847 1.75 5.28185 1.75 5.23324H0.25ZM0.743021 6.4235C1.0587 6.73918 1.48685 6.91652 1.93328 6.91652V5.41652C1.88467 5.41652 1.83805 5.39721 1.80368 5.36284L0.743021 6.4235ZM1.93328 6.91652C2.14359 6.91652 2.37523 6.877 2.58525 6.80995C2.78354 6.74665 3.04881 6.63167 3.25698 6.4235L2.19632 5.36284C2.21849 5.34067 2.22801 5.3387 2.2099 5.34839C2.19383 5.35699 2.16667 5.369 2.12905 5.38101C2.0921 5.3928 2.05249 5.40222 2.01473 5.40846C1.97612 5.41485 1.94788 5.41652 1.93328 5.41652V6.91652ZM3.25698 6.4235C3.57265 6.10782 3.75 5.67968 3.75 5.23324H2.25C2.25 5.28185 2.23069 5.32847 2.19632 5.36284L3.25698 6.4235ZM3.75 5.23324V1.50013H2.25V5.23324H3.75ZM10.5 10.25C10.5 11.7688 9.26878 13 7.75 13V14.5C10.0972 14.5 12 12.5972 12 10.25H10.5ZM7.75 13C6.23122 13 5 11.7688 5 10.25H3.5C3.5 12.5972 5.40279 14.5 7.75 14.5V13ZM5 10.25C5 8.73122 6.23122 7.5 7.75 7.5V6C5.40279 6 3.5 7.90279 3.5 10.25H5ZM7.75 7.5C9.26878 7.5 10.5 8.73122 10.5 10.25H12C12 7.90279 10.0972 6 7.75 6V7.5Z" fill="black"/>
</svg>

<svg width="16" height="16" viewBox="0 0 16 16" fill="none" xmlns="http://www.w3.org/2000/svg"><path d="M1.183 14.5a.75.75 0 0 0 1.5 0h-1.5ZM15 9.405a.75.75 0 0 0 0-1.5v1.5Zm-1.826-.75v-.75.75Zm-.33-.136-.53.531.53-.531Zm-.137-.33h-.75v.003l.75-.002Zm1.474-6.634.253.706a.75.75 0 0 0 .1-.044l-.353-.662Zm.818.412h-.75.75ZM14.25 14.5a.75.75 0 0 0 1.5 0h-1.5Zm-12.5-13a.75.75 0 1 0-1.5 0h1.5ZM1 5.233H.25 1ZM3.75 1.5a.75.75 0 1 0-1.5 0h1.5ZM1.183 6.167V14.5h1.5V6.167h-1.5ZM15 7.905h-1.826v1.5H15v-1.5Zm-1.826 0c.075 0 .147.03.2.083l-1.06 1.062c.229.228.538.355.86.355v-1.5Zm.2.083a.283.283 0 0 1 .083.2l-1.5.004c.001.322.13.63.358.858l1.059-1.062Zm.083.202c0-1.77.036-3.246.225-4.33.094-.542.218-.936.364-1.203.14-.258.274-.355.388-.396L13.928.85c-.554.199-.938.61-1.2 1.09-.256.472-.417 1.046-.524 1.663-.214 1.232-.247 2.834-.247 4.588h1.5Zm1.078-5.973a.525.525 0 0 1-.097.039l.007-.002a.383.383 0 0 1 .066-.004h.002a.34.34 0 0 1-.036-.005L14.77.773a1.612 1.612 0 0 0-.44-.015 1.357 1.357 0 0 0-.502.136l.707 1.323Zm-.058.028a.283.283 0 0 1-.163-.099l1.16-.951a1.217 1.217 0 0 0-.704-.422l-.293 1.472Zm-.163-.099a.283.283 0 0 1-.065-.18l1.5.001c0-.282-.097-.554-.276-.772l-1.16.951Zm-.065-.18V14.5h1.5V1.967h-1.5ZM.25 1.5v3.733h1.5V1.5H.25Zm0 3.733c0 .447.177.875.493 1.19l1.06-1.06a.183.183 0 0 1-.053-.13H.25Zm.493 1.19c.316.316.744.494 1.19.494v-1.5a.183.183 0 0 1-.13-.054l-1.06 1.06Zm1.19.494c.21 0 .442-.04.652-.107.199-.063.464-.178.672-.386l-1.06-1.061c.021-.022.031-.024.013-.015a.826.826 0 0 1-.277.068v1.5Zm1.324-.494a1.68 1.68 0 0 0 .493-1.19h-1.5c0 .049-.02.095-.054.13l1.061 1.06Zm.493-1.19V1.5h-1.5v3.733h1.5Zm6.75 5.017A2.75 2.75 0 0 1 7.75 13v1.5A4.25 4.25 0 0 0 12 10.25h-1.5ZM7.75 13A2.75 2.75 0 0 1 5 10.25H3.5a4.25 4.25 0 0 0 4.25 4.25V13ZM5 10.25A2.75 2.75 0 0 1 7.75 7.5V6a4.25 4.25 0 0 0-4.25 4.25H5ZM7.75 7.5a2.75 2.75 0 0 1 2.75 2.75H12A4.25 4.25 0 0 0 7.75 6v1.5Z" fill="#000"/></svg>
